X:1
T:Title
%%score { ( 1 2 ) | ( 3 4 ) }
L:1/8
Q:1/4=100
M:4/4
K:Ab
V:1 treble nm="Grand Piano"
V:2 treble 
V:3 bass 
V:4 bass 
V:1
 cB [CA]2 [CA]2 E2 | F2 A2 E4 | AB c2 [=DB]2 [DA]2 | [EB]6 z2 | cB [CA]2 [CA]2 E2 | F2 A2 E4 | %6
w: Hubert~P.~Main * * * *||||||
 A3 A B2 B2 | [CA]6 z2 | B2 e2 cB A2 | B2 ed [EAc]4 | [EBe]2 [=DAB]2 .[EGB]2 .[CFB]2 | %11
w: |||||
 .[B,EG]2 .[B,=DF]2 [G,E]4 | [CA]B [Ec]2 B4 | Bc d2 c4 | [Ee]3 A c2 B2 | [CEA]6 z2 |] %16
w: |||||
V:2
 E2 z2 z4 | x8 | x8 | x8 | E2 z2 z4 | x8 | x8 | x8 | x8 | z2 G2 z4 | x8 | x8 | x8 | x8 | x8 | x8 |] %16
V:3
 [A,,A,]2 [A,,E,]2 [A,,E,]2 [C,A,]2 | [D,A,D]2 [F,A,D]2 [A,C]4 | %2
 [F,A,C]2 [F,A,C]2 [B,,F,]2 [B,,B,]2 | [E,G,]6 z2 | [A,,A,]2 [A,,E,]2 [A,,E,]2 [C,A,]2 | %5
 [D,A,D]2 [F,A,D]2 [A,C]4 | [F,A,C]3 [F,A,C] [E,A,D]2 [E,G,D]2 | [A,,A,]6 z2 | z4 [A,E]2 z2 | %9
 [G,B,E]2 E,-[E,E] A,4 | G,2 F,2 z[K:treble] c[K:bass] z A | z C z A, z2 D2 | A,2 z2 z4 | %13
 [E,E]-[E,A,E] [G,B,E]2 [A,E]4 | [C,A,]3 [F,A,C] [E,A,E]2 [E,DE]2 | A,,6 z2 |] %16
V:4
 x8 | x8 | x8 | x8 | x8 | x8 | x8 | x8 | [E,G,E]2 [G,B,E]2 z D [A,CE]2 | z2 .B,2 z4 | %10
 z4 E,2[K:treble][K:bass] A,,2 | B,,2 B,,2 E,4 | z D [A,,A,]2 [E,G,E]4 | .G,2 z2 z4 | x8 | x8 |] %16

